X:1
T:Policy King
T:Policy King
T:(A Ragology Two-Step.)
T:By CHAS. B. BROWN
T:Copyright 1905 by Will Rossiter.
T:Copyright 1905 by Will Rossiter.
T:Copyright 1905 by Will Rossiter.
C:By CHAS. B. BROWN
Z:Copyright 1905 by Will Rossiter.
%%score { ( 1 3 ) | ( 2 4 ) }
L:1/8
Q:1/4=90
M:2/4
K:C
V:1 treble nm="Piano" snm="Pno."
V:3 treble 
V:2 bass 
V:4 bass 
V:1
"^Not fast" (3e/f/^f/ | g/^f/g/c'/- c'/=b/c' | [fc'] z (cc/d/) | e/c/d/e/- e/[^Fc]/[=Fd] | %4
"^Composer of\n\"Message of love Waltz,\" \"Mobile Prance,\"\n       \"Message from Dreamland Waltz\"\n" [EGc] z [cegc'] || %5
!mf! (3e/f/^f/ |:S g/^f/g/c'/- c'/b/c' | e/^d/e/g/- g/^f/g | c/B/c/f/- f/c/d | [ce]3 (3e/f/^f/ | %10
 g/^f/g/c'/- c'/b/c' | e/^d/ e/g/- g/^f/g | d/^c/d/[ca]/- [ca]/[ca]/[db] | %13
 !>![Bg]z!>![Bdfg] (3e/f/^f/ | g/^f/g/c'/- c'/b/c' | e/^d/e/g/- g/^f/g | c/B/c/f/- f/c/d | %17
 !>![^GBe]3 (3e/f/^f/ | g/^f/g/c'/- c'/=b/c' | [fc']2 (cc/d/) | %20
 e/c/[Gd]/!f![Ge]/- [Ge]/[^Fc]/[=Fd] |1!f! [EGc] z !>![cegc'] (3e/f/^f/ :|2 %22
!f! [EGc][cfc']/[cfc']/- [cfc']/[Bfb]/[cfc'] ||3,4,5,6,7 [EGc]z[cegc'] z!dacoda! |]: %24
!f!"^Giocoso el legiero" [cfc']2 !>![cfa]2- | [cfa][cf=b]/[cfc']/- [cfc']/[cfb]/[cfc'] | %26
 [cec']2 [ceg]2- | [ceg][Gc^d]/[Gce]/- [Gce]/[Gcd]/[Gce] | !>![Bdg]2 !>![GBd]2- | %29
 [GBd][Bd^f]/[Bdg]/- [Bdg]/[Bdf]/[Bdg] | !>![ceg]2 !>![Gce]2- | %31
 [Gce][cec']/[cec']/- [cec']/[ce=b]/[cec'] | !>![cfc']2 !>![cfa]2- | %33
 [cfa][cf=b]/[cfc']/- [cfc']/[cfb]/[cfc'] | [cec']2 !>![ceg]2- | [ceg]/c/d/e/- e/d/c | %36
 !>![Bdg]2 !>![GBd]2- | [GBd]/^c/d/g/- g/f/e/d/ | ce/f/ ^f/g/a/b/ |1 %39
 [ec'][cfb]/!ff![cfc']/- [cfc']/[cfb]/[cfc'] :|2 %40
 !>![ec'] z!ff!"_D.S.al\n      Fine\n" !>![cegc'](3e/f/^f/!D.S.! |: %41
[K:F][M:2/4]O!mf!"^TRIO."{CDE} F/.E/.F/.c/- .c/.=B/c | !>!E3 (3C/D/E/ | F/E/F/c/- c/=B/c | %44
 !>!E3 (3C/D/E/ | F/E/F/[^Fd]/- [Fd]/[F^c]/[Fd] | BA/G/- G/G/A/B/ | %47
 =B/^A/B/[^Ge]/- [Ge]/[G^d]/[Ge] |!f! !>![EAc]2 !>![EBc] (3C/D/E/ | F/E/F/c/- c/=B/c | %50
 !>!E3 (3C/D/E/ | F/E/F/c/- c/=B/c | !>!E3 (3C/D/E/ | F/E/F/[^Fd]/- [Fd]/[F^c]/[Fd] | %54
!f! !>![DB]!>![DA]!>![DG] F/G/ | [FA]/!>![Fc][FA]/ !>![CF]!>![CG] |1 %56
!f! !>![A,CF]!>![GBe] !>![GBd]!>![GBc] :|2,3!f! [A,CF] z [FAcf]/ z/!fine! ||!ff! (3A/=B/^c/ || %59
 d/^c/d/f/- f/e/d | e^c/A/- !>!A2 | x4 | x4 |{/d} c/=B/c/d/ d/c/d | ed/c/ !>!c2 |!ff! x4 | x4 | %67
!p! C/=B,/C/^C/- C/^B,/C | D/^C/D/^D/- D/^^C/D | E/^D/E/F/- F/E/F/^F/ |!ff! G z !>![EG_Bc] z |] %71
V:2
 z | x4 | x4 |"^marcato" x2 !>![D,D]!>![G,,G,] | !>![C,C]!>![G,,G,] !>![C,,C,] || z |: %6
 C,[G,CE] G,,[G,CE] | C,[G,CE] G,,[G,CE] | [A,,A,][A,CF] !>![A,,A,]!>![_A,,_A,] | %9
 [G,,G,][G,CE][G,CE] z | C,[G,CE] G,,[G,CE] | C,[G,CE] E,[G,CE] | [D,,D,][A,D] D,[^F,CD] | %13
 [G,,G,]!>![G,B,D]!>![G,B,D] z | C,[G,CE] G,,[G,CE] | C,[G,CE] G,,[G,CE] | %16
 [A,,A,][A,CF] !>![A,,A,]!>![_A,,_A,] | !>![E,E]!>![B,,B,]!>![E,,E,] z | x4 | x4 | %20
 x2 [D,D][G,,G,] |1 [C,C][G,,G,] [C,,C,] z :|2 [C,C] z z2 ||3,4,5,6,7 [C,C] z [C,,C,] z |]: %24
 [F,,F,]"^staccato.."[A,C] [A,,A,][A,C] | [F,,F,][A,C] !>![A,,A,]!>![_A,,_A,] | %26
 !>![G,,G,][G,CE] !>!E,[G,CE] | G,,[G,CE] C,[G,CE] | D,[G,B,F] G,,[G,B,F] | D,[G,B,F] G,,[G,B,F] | %30
 C,[G,CE] G,,[G,CE] | C,[G,CE] E,[G,CE] | !>!F,[A,CF] !>!C,[A,CF] | %33
 !>!F,[A,C] !>![A,,A,]!>![_A,,_A,] | !>![G,,G,][G,CE] !>!E,[G,CE] | !>!G,,[G,CE] !>!C,[G,CE] | %36
 !>!D,[G,B,F] !>!G,,[G,B,F] | !>!D,[G,B,F] !>!G,,[G,B,F] | [G,CE] !>![G,,G,]2 [G,,G,] |1 %39
 [C,,C,] z z2 :|2 !>![C,,C,]z!>![C,,C,] z |:[K:F][M:2/4] !>![F,,F,][F,A,C] !>![A,,A,]!>![_A,,_A,] | %42
 [G,,G,][G,B,C][G,B,C] z | !>![F,,F,][F,A,C] !>![A,,A,]!>![_A,,_A,] | !>![G,,G,][G,B,C][G,B,C] z | %45
 !>![F,,F,][F,A,C] D,[A,CD] | !>![G,,G,]!>![A,,A,]!>![B,,B,] z | ^G,[=B,DE] E,[=B,DE] | %48
 !>![A,,A,]2 !>![G,,G,] z | !>![F,,F,][F,A,C] !>![A,,A,]!>![_A,,_A,] | !>![G,,G,][G,B,C][G,B,C] z | %51
 !>![F,,F,][F,A,C] !>![A,,A,]!>![_A,,_A,] | !>![G,,G,][G,B,C][G,B,C] z | F,[A,CD] D,[A,CD] | %54
 !>![G,,G,]!>![A,,A,]!>![B,,B,] z | !>![C,F,A,C]2 !>![C,,C,]!>![C,,C,] |1 %56
 !>![F,,F,]!>![C,,C,] !>![D,,D,]!>![E,,E,] :|2,3 [F,,F,] z !>![F,,,F,,]/ z/ || z || %59
 !>![A,DF]2 !>![A,DF]!>![A,DF] | !>![A,^CE]4 |"^marcato" !>!A,/^G,/A,/B,/- B,/A,/=G, | %62
 !>!F,E,/D,/- D,2 | [G,CE]2 [G,B,F][G,B,F] | !>![G,CE]4 | !>!C,/B,,/C,/D,/- D,/C,/D, | %66
 !>!E,D,/C,/- C,2 | C,/"^cresc.  poco  a   poco  e   ben  staccato"=B,,/C,/^C,/- C,/^B,,/C, | %68
 D,/^C,/D,/^D,/- D,/^^C,/D, | E,/^D,/E,/F,/- F,/E,/F,/^F,/ | G,"^D.S.Trio" z !>![C,,C,] z |] %71
V:3
 x | !>![ce]2 !>![_Bce]!>![Bce] | [Ac] z [F_A]2 | [EG]2 x2 | x3 || x |: x4 | x4 | x4 | x4 | x4 | %11
 x4 | x4 | x4 | x4 | x4 | x4 | x4 | !>![ce]2 !>![_Bce]!>![Bce] | [Ac]2 [F_A]2 | [EG] z x2 |1 x4 :|2 %22
 x4 ||3,4,5,6,7 x4 |]: x4 | x4 | x4 | x4 | x4 | x4 | x4 | x4 | x4 | x4 | x4 | x4 | x4 | x4 | x4 |1 %39
 x4 :|2 x4 |:[K:F][M:2/4] x4 | x4 | x4 | x4 | x4 | x4 | x4 | x4 | x4 | x4 | x4 | x4 | x4 | x4 | %55
 x4 |1 x4 :|2,3 x3 || x || x4 | x4 | x4 | x4 | x4 | x4 | x4 | x4 | x4 | x4 | x4 | x4 |] %71
V:4
 x | x4 | x4 | x4 | x3 || x |: x4 | x4 | x4 | x4 | x4 | x4 | x4 | x4 | x4 | x4 | x4 | x4 | x4 | %19
 x4 | x4 |1 x4 :|2 x4 ||3,4,5,6,7 x4 |]: x4 | x4 | x4 | x4 | x4 | x4 | x4 | x4 | x4 | x4 | x4 | %35
 x4 | x4 | x4 | x4 |1 x4 :|2 x4 |:[K:F][M:2/4] x4 | x4 | x4 | x4 | x4 | x4 | x4 | x4 | x4 | x4 | %51
 x4 | x4 | x4 | x4 | x4 |1 x4 :|2,3 x3 || x || x4 | x4 | A,,/^G,,/A,,/B,,/- B,,/A,,/=G,, | %62
 !>!F,,E,,/D,,/- D,,2 | x4 | x4 | C,,/B,,,/C,,/D,,/- D,,/C,,/D,, | !>!E,,D,,/C,,/- C,,2 | x4 | x4 | %69
 x4 | x4 |] %71

